X:1
T:The Banks of Sweet Loch Ray
M:6/8
L:1/8
K:D
D/2-F/2| A2 A ccB| A2 F F2 D| E2 D D2 C| D3- D2 A| B2 B d2 d| d2- A c2 B|\
A-G FG-A B| A3- A2 A| d2 d d2 A| B3/2 B3/2 d2 B|
